!!!SOCIAL_FUNCTION:	moccasin game songs
!!!PDT:	1913
!!!OTL: No_163_Moccasin_Game_Song.krn
!!!REG: Great_Lakes
!!!LANG: Non-Tone
!!!LING_GROUP: Algonquin
**kern	**kern
*staff2	*staff1
=1-	=1-
*clefF4	*clefG2
*k[]	*k[]
*M2/4	*M2/4
8GG^/	4g/
16r	.
16GG/	.
8GG^/	16e/LK
.	8.e/J
16r	.
16GG/	.
=2	=2
2r	8g/L
.	[8g/J
.	4g/]
=3	=3
2r	16g/LK
.	8e/
.	16g/Jk
.	4c/
=4	=4
2r	4..A/
.	16g/
=5	=5
2r	8.e/L
.	16g/Jk
.	8c/L
.	8c/J
=6||	=6||
*M3/4	*M3/4
2.r	4..c/
.	16e/
.	8.c/L
.	16A/Jk
*	*clefF4
=7	=7
2.r	4G\
.	16E\LK
.	8.E\J
.	16c\LK
.	8.c\J
=8||	=8||
*M2/4	*M2/4
2r	4.A\
.	16c\LL
.	16A\JJ
=9||	=9||
*M3/4	*M3/4
2.r	2G\
.	8.E/L
.	16C/Jk
=10	=10
2.r	16C/LK
.	8.C/J
.	2C/
=11||	=11||
*M2/4	*M2/4
2r	2C/
==	==
*-	*-
